X:1
T: A Trip to Tunbridge
N:
C:
S:
A:
O:
R:
M:2/4
K:G
I:speed 116
%W:
% voice 1 (1 lines, 33 notes)
K:G
M:2/4
L:1/16
B2 |G2 G2 B3 A |B2 G2 G2 B2 |A2 A2 e3 d |e2 A2 A2 B2 |c2 B2 c2 e2 |d2 B2 G2 B2 |A2 c2 B3 A |G2 E2 E2 B2 |
%W:
% voice 1 (1 lines, 32 notes)
G2 G2 B3 A |B2 G2 G2 B2 |A2 A2 e3 d |e2 A2 A2 B2 |c2 B2 c2 e2 |d2 B2 G2 B2 |A2 c2 B3 A |G2 E2 E2 B2 |
%W:
% voice 1 (1 lines, 32 notes)
G2 G2 g3 f |g2 d2 d2 g2 |e2 e2 a3 g |a2 e2 e2 f2 |g2 a2 g2 e2 |d2 B2 G2 B2 |A2 c2 B3 A |G2 E2 E2 B2 |
%W:
% voice 1 (1 lines, 31 notes)
G2 G2 g3 f |g2 d2 d2 g2 |e2 e2 a3 g |a2 e2 e2 f2 |g2 a2 g2 e2 |d2 B2 G2 B2 |A2 c2 B3 A |G2 E2 E2 ||
